X: 1
T: Cooleys
C: Joe Cooley
Z: Jeremy
S: https://thesession.org/tunes/1#setting1
R: reel
M: 4/4
L: 1/8
K: Edor
|:EBBA B2 EB|B2 AB dBAG|FDAD BDAD|FDAD dAFD|
EBBA B2 EB|B2 AB defg|afec dBAF|DEFD E2:|
|:gf|eB B2 efge|eB B2 gedB|A2 FA DAFA|A2 FA defg|
eB B2 eBgB|eB B2 defg|afec dBAF|DEFD E4:|

